img/svg/icon-font/industry.svg

<svg width="22" height="22" viewBox="0 0 22 22" fill="none" xmlns="http://www.w3.org/2000/svg">
<g clip-path="url(#clip0)">
<path fill-rule="evenodd" clip-rule="evenodd" d="M4.81231 4.25275C4.79611 4.25366 4.77991 4.25409 4.76392 4.25409C4.31112 4.25417 3.93205 3.90007 3.90661 3.44241C3.90257 3.36936 3.81938 1.63841 4.87182 0.322746C5.1683 -0.0479455 5.70911 -0.107973 6.07971 0.188512C6.45032 0.484996 6.51043 1.0258 6.21395 1.39641C5.57758 2.19189 5.62205 3.33576 5.6227 3.34706C5.64899 3.82096 5.28617 4.22646 4.81231 4.25275ZM7.87777 4.25871L7.86294 4.25884C7.39501 4.25893 7.0119 3.88368 7.004 3.41408C7.00151 3.26781 7.00761 1.95641 7.9708 0.976804C8.61043 0.326172 9.48979 -0.00241049 10.5834 0.000168548C11.598 0.000168548 12.6149 0.485924 13.6913 1.00013L13.6913 1.00014C14.9617 1.60703 16.2752 2.23454 17.7844 2.23454H17.8162C18.3488 2.23454 19.6627 2.06843 20.3572 0.529758C20.5525 0.0971481 21.0615 -0.095266 21.494 0.100027C21.9266 0.295277 22.119 0.804285 21.9238 1.23685C21.156 2.93777 19.6205 3.95325 17.8162 3.95325H17.7844C15.8858 3.95325 14.2583 3.17575 12.9505 2.55099L12.9505 2.55099L12.9505 2.55096C12.0161 2.10456 11.2087 1.71887 10.5802 1.71887H10.5738C9.9606 1.71887 9.49834 1.87464 9.19635 2.18173C8.73139 2.65461 8.72236 3.37786 8.72249 3.38495C8.73053 3.85949 8.35232 4.25072 7.87777 4.25871ZM20.487 5.28576C20.7953 4.92486 21.3377 4.88224 21.6986 5.19045C22.0595 5.49871 22.1021 6.04119 21.7939 6.40208C20.5202 7.89323 19.0332 7.49065 18.049 7.22421C17.0806 6.96201 16.8799 6.97361 16.6178 7.30696C16.4483 7.52271 16.1962 7.63537 15.9416 7.63537C15.7557 7.63537 15.5686 7.57539 15.4112 7.45164C15.038 7.15838 14.9732 6.61813 15.2665 6.24495C15.7176 5.67084 16.2964 5.36181 16.9866 5.32645C17.5161 5.29934 18.0154 5.43447 18.4982 5.56518C19.4582 5.82506 19.9437 5.92178 20.487 5.28576ZM21.5733 19.5294C21.4428 19.073 20.967 18.8089 20.5107 18.9395C20.0544 19.07 19.7903 19.5457 19.9209 20.0021L20.0007 20.2814H15.6938L14.1341 14.6095H15.3826C15.8573 14.6095 16.242 14.2248 16.242 13.7502C16.242 13.2755 15.8573 12.8908 15.3826 12.8908H13.6614L13.0706 10.7423H17.9607V13.0294C17.9607 13.1094 17.9719 13.1889 17.9938 13.2658L18.8392 16.2208C18.9471 16.5981 19.2911 16.844 19.665 16.844C19.7432 16.844 19.8228 16.8332 19.9017 16.8106C20.3581 16.6801 20.6221 16.2044 20.4916 15.7481L19.6795 12.9089V9.88292C19.6795 9.40829 19.2947 9.02355 18.8201 9.02355H13.0624V6.44547C13.0624 5.97083 12.6776 5.58609 12.203 5.58609H3.69525C3.22062 5.58609 2.83587 5.97083 2.83587 6.44547V10.7548L0.0310037 20.9119C-0.0404103 21.1705 0.0130858 21.4477 0.175594 21.6612C0.338144 21.8747 0.591058 22 0.859398 22H21.1404C21.4101 22 21.6642 21.8734 21.8266 21.658C21.989 21.4427 22.0408 21.1636 21.9667 20.9043L21.5733 19.5294ZM1.98814 20.2813L4.14775 12.461H8.76552C9.24015 12.461 9.62489 12.0763 9.62489 11.6017C9.62489 11.127 9.24015 10.7423 8.76552 10.7423H4.55463V7.30484H11.3436V10.8282C11.3436 10.9052 11.354 10.9819 11.3744 11.0561L13.9113 20.2813H1.98814Z" fill="#4C51CB"/>
</g>
<defs>
<clipPath id="clip0">
<rect width="22" height="22" fill="white"/>
</clipPath>
</defs>
</svg>

<svg width="22" height="22" fill="none" xmlns="http://www.w3.org/2000/svg"><g clip-path="url(#clip0)"><path fill-rule="evenodd" clip-rule="evenodd" d="M4.812 4.253a.86.86 0 01-.906-.81c-.003-.074-.087-1.805.966-3.12a.86.86 0 111.342 1.073c-.636.796-.592 1.94-.591 1.951a.86.86 0 01-.81.906zm3.066.006h-.015a.86.86 0 01-.859-.845c-.002-.146.004-1.458.967-2.437.64-.65 1.519-.98 2.612-.977 1.015 0 2.032.486 3.108 1 1.27.607 2.584 1.235 4.093 1.235h.032c.533 0 1.847-.167 2.541-1.705a.86.86 0 111.567.707c-.768 1.7-2.303 2.716-4.108 2.716h-.032c-1.898 0-3.526-.777-4.833-1.402-.935-.446-1.742-.832-2.37-.832h-.007c-.613 0-1.076.156-1.378.463-.465.473-.474 1.196-.474 1.203a.86.86 0 01-.844.874zm12.609 1.027a.86.86 0 011.307 1.116c-1.274 1.491-2.76 1.089-3.745.822-.968-.262-1.17-.25-1.431.083a.858.858 0 01-1.207.145.86.86 0 01-.144-1.207c.45-.574 1.03-.883 1.72-.919.53-.027 1.028.108 1.511.24.96.26 1.446.356 1.989-.28zm1.086 14.243a.86.86 0 10-1.652.473l.08.28h-4.307l-1.56-5.672h1.249a.86.86 0 100-1.72H13.66l-.59-2.148h4.89v2.287c0 .08.01.16.033.237l.845 2.955a.86.86 0 001.653-.473l-.813-2.84V9.884a.86.86 0 00-.859-.86h-5.758V6.446a.86.86 0 00-.859-.859H3.695a.86.86 0 00-.86.86v4.309L.032 20.912A.86.86 0 00.859 22H21.14a.86.86 0 00.827-1.096l-.394-1.375zm-19.585.752l2.16-7.82h4.618a.86.86 0 100-1.719H4.555V7.305h6.789v3.523c0 .077.01.154.03.228l2.537 9.225H1.988z" fill="#4C51CB"/></g><defs><clipPath id="clip0"><path fill="#fff" d="M0 0h22v22H0z"/></clipPath></defs></svg>
